svg/device/watch_2_fill.svg

<?xml version="1.0" encoding="UTF-8"?>
<svg width="24px" height="24px" viewBox="0 0 24 24" version="1.1" xmlns="http://www.w3.org/2000/svg" xmlns:xlink="http://www.w3.org/1999/xlink">
    <title>watch_2_fill</title>
    <g id="Icon" stroke="none" stroke-width="1" fill="none" fill-rule="evenodd">
        <g id="Device" transform="translate(-144.000000, -432.000000)">
            <g id="watch_2_fill" transform="translate(144.000000, 432.000000)">
                <path d="M24,0 L24,24 L0,24 L0,0 L24,0 Z M12.5935,23.2578 L12.5819,23.2595 L12.5109,23.295 L12.4919,23.2987 L12.4767,23.295 L12.4057,23.2595 C12.3958,23.2564 12.387,23.259 12.3821,23.2649 L12.378,23.2758 L12.3609,23.7031 L12.3659,23.7235 L12.3769,23.7357 L12.4805,23.8097 L12.4953,23.8136 L12.5071,23.8097 L12.6107,23.7357 L12.6233,23.7197 L12.6267,23.7031 L12.6096,23.2758 C12.6076,23.2657 12.601,23.2593 12.5935,23.2578 Z M12.8584,23.1453 L12.8445,23.1473 L12.6598,23.2397 L12.6499,23.2499 L12.6472,23.2611 L12.6651,23.6906 L12.6699,23.7034 L12.6784,23.7105 L12.8793,23.8032 C12.8914,23.8069 12.9022,23.803 12.9078,23.7952 L12.9118,23.7812 L12.8777,23.1665 C12.8753,23.1546 12.8674,23.147 12.8584,23.1453 Z M12.143,23.1473 C12.1332,23.1424 12.1222,23.1453 12.1156,23.1526 L12.1099,23.1665 L12.0758,23.7812 C12.0751,23.7927 12.0828,23.8019 12.0926,23.8046 L12.1083,23.8032 L12.3092,23.7105 L12.3186,23.7024 L12.3225,23.6906 L12.3404,23.2611 L12.3372,23.2485 L12.3278,23.2397 L12.143,23.1473 Z" id="MingCute" fill-rule="nonzero"></path>
                <path d="M10.7543,2 C9.86134,2 9.07657,2.59196 8.83125,3.45056 L8.03848,6.22528 L8.0375,6.22871 C6.20289,7.49074 5,9.6049 5,12 C5,14.3951 6.20289,16.5093 8.0375,17.7713 L8.03848,17.7747 L8.83125,20.5494 C9.07657,21.408 9.86134,22 10.7543,22 L13.2457,22 C14.1387,22 14.9234,21.408 15.1687,20.5494 L15.9615,17.7747 L15.9625,17.7713 C17.7971,16.5093 19,14.3951 19,12 C19,9.6049 17.7971,7.49074 15.9625,6.22871 L15.9615,6.22528 L15.1687,3.45056 C14.9234,2.59195 14.1387,2 13.2457,2 L10.7543,2 Z M13,9 C13,8.44772 12.5523,8 12,8 C11.4477,8 11,8.44772 11,9 L11,12 C11,12.2652 11.1054,12.5196 11.2929,12.7071 L12.7929,14.2071 C13.1834,14.5976 13.8166,14.5976 14.2071,14.2071 C14.5976,13.8166 14.5976,13.1834 14.2071,12.7929 L13,11.5858 L13,9 Z" id="形状" fill="#09244B"></path>
            </g>
        </g>
    </g>
</svg>

<svg xmlns="http://www.w3.org/2000/svg" width="24" height="24"><g fill="none" fill-rule="evenodd"><path d="M24 0v24H0V0h24ZM12.594 23.258l-.012.002-.071.035-.02.004-.014-.004-.071-.036c-.01-.003-.019 0-.024.006l-.004.01-.017.428.005.02.01.013.104.074.015.004.012-.004.104-.074.012-.016.004-.017-.017-.427c-.002-.01-.009-.017-.016-.018Zm.264-.113-.014.002-.184.093-.01.01-.003.011.018.43.005.012.008.008.201.092c.012.004.023 0 .029-.008l.004-.014-.034-.614c-.003-.012-.01-.02-.02-.022Zm-.715.002a.023.023 0 0 0-.027.006l-.006.014-.034.614c0 .012.007.02.017.024l.015-.002.201-.093.01-.008.003-.011.018-.43-.003-.012-.01-.01-.184-.092Z"/><path fill="#09244B" d="M10.754 2a2 2 0 0 0-1.923 1.45l-.793 2.775v.004A6.992 6.992 0 0 0 5 12a6.992 6.992 0 0 0 3.037 5.771l.001.004.793 2.774A2 2 0 0 0 10.754 22h2.492a2 2 0 0 0 1.923-1.45l.792-2.775.002-.004A6.992 6.992 0 0 0 19 12a6.992 6.992 0 0 0-3.037-5.771l-.002-.004-.792-2.774A2 2 0 0 0 13.246 2h-2.492ZM13 9a1 1 0 1 0-2 0v3a1 1 0 0 0 .293.707l1.5 1.5a1 1 0 0 0 1.414-1.414L13 11.586V9Z"/></g></svg>
